X:1
T:Drömde mik en dröm i nat / Nunnans dröm
T:(tolkning Adolf Lindgren, 1888)
R:Visa
O:Lund, Skåne
S:[[De Svenska Landsmålen ock Svenskt Folklif]] VI, artikel "Nunnans dröm" av Adolf Lindgren
Z:Åke Persson, 2011-09-26
M:C
L:1/4
K:D
G | G B A B | G F E z/G/ | B B/ B/ B G | E2 z z |
w:|Eröm-ef mia fn|eröm i nbtt om|sil-kf odk är-lia|päll|
G B A B | B F B>F | G E G B | F2 z z |
w:cär-abe gidk till|sist sin skbtt min|rie-eb-rf så|snäll  Mfn|

